chili-medium-outline.svg

<svg fill="currentColor" viewBox="0 0 24 24"><path d="m8.43 7.32-1.57-.9C7.38 5.6 8.11 5 8.94 4.7A.99.99 0 0 0 8 4V2c.77 0 1.47.29 2 .77V4c.45 0 .81.3.94.7-1.11.38-2.01 1.35-2.51 2.62M8 11c0-.77.23-1.5.6-2.09l-1.34-.76C6.5 8.44 6 9.16 6 10v1c0 7.05 4.9 9.8 7.03 10.66C10.41 19.62 8 16.2 8 11m10-1v12s-8-2-8-11v-1c0-.73.4-1.37 1-1.72l1.25.72L14 8l1.75 1L17 8.28c.6.35 1 .99 1 1.72m-2 8.87v-7.42l-2-1.15-2 1.13c.17 4.01 2.23 6.26 4 7.44M10.73 6.63l1.52.87 1.75-1 1.75 1 1.52-.87c-.55-.97-1.36-1.69-2.3-1.98A2.996 2.996 0 0 0 12 2v2c.44 0 .8.29.94.69-.91.31-1.68 1.01-2.21 1.94"/></svg>

<svg  viewBox="0 0 24 24" fill="currentColor"><path  d="M8.43 7.32L6.86 6.42C7.38 5.6 8.11 5 8.94 4.7C8.81 4.3 8.45 4 8 4V2C8.77 2 9.47 2.29 10 2.77V4C10.45 4 10.81 4.3 10.94 4.7C9.83 5.08 8.93 6.05 8.43 7.32M8 11C8 10.23 8.23 9.5 8.6 8.91L7.26 8.15C6.5 8.44 6 9.16 6 10V11C6 18.05 10.9 20.8 13.03 21.66C10.41 19.62 8 16.2 8 11M18 10V22C18 22 10 20 10 11V10C10 9.27 10.4 8.63 11 8.28L12.25 9L14 8L15.75 9L17 8.28C17.6 8.63 18 9.27 18 10M16 18.87V11.45L14 10.3L12 11.43C12.17 15.44 14.23 17.69 16 18.87M10.73 6.63L12.25 7.5L14 6.5L15.75 7.5L17.27 6.63C16.72 5.66 15.91 4.94 14.97 4.65C14.79 3.16 13.54 2 12 2V4C12.44 4 12.8 4.29 12.94 4.69C12.03 5 11.26 5.7 10.73 6.63Z"/></svg>
